packages/foundations/assets/icons/functional/images/file/cloud_download_20.svg

<svg width="20" height="20" viewBox="0 0 20 20" fill="none" xmlns="http://www.w3.org/2000/svg">
<g clip-path="url(#clip0_185_882)">
<path fill-rule="evenodd" clip-rule="evenodd" d="M10 9C10.5128 9 10.9355 9.38604 10.9933 9.88338L11 10L11.0003 14.6335C11.3827 14.4127 11.88 14.4658 12.2071 14.7929C12.5676 15.1534 12.5953 15.7206 12.2903 16.1129L12.2071 16.2071L10.7071 17.7071L10.6254 17.7803L10.5207 17.854L10.4232 17.9063L10.3121 17.9503L10.2007 17.9798L10.0752 17.9972L10 18L9.90997 17.996L9.85153 17.989L9.73401 17.9642L9.62866 17.9288L9.51594 17.8753L9.40469 17.8037L9.34743 17.7578L9.29289 17.7071L7.79289 16.2071L7.7097 16.1129C7.4301 15.7533 7.4301 15.2467 7.7097 14.8871L7.79289 14.7929L7.8871 14.7097C8.17473 14.4861 8.5564 14.4413 8.88167 14.5754L9.00071 14.6341L9 10L9.00673 9.88338C9.06449 9.38604 9.48716 9 10 9ZM12 2C14.7614 2 17 4.23858 17 7L16.987 7.343L17.0728 7.43907C17.5604 8.02316 17.8745 8.7378 17.9695 9.50524L17.993 9.76291L18 10C18 12.0533 16.4487 13.7578 14.4106 13.9775L14.2052 13.9945L13.999 13.9946C13.4869 13.9948 13.0647 13.6095 13.0068 13.1129L13 12.996C13 12.4442 13.4472 11.9968 13.999 11.9966L14.1184 11.9966C15.1214 11.9385 15.9206 11.1421 15.9944 10.1502L16 10C16 9.46286 15.7881 8.9621 15.4198 8.59166L15.2914 8.47313L14.8513 8.10084L14.9529 7.53343C14.9841 7.35892 15 7.18071 15 7C15 5.34315 13.6569 4 12 4C10.9714 4 10.0356 4.52129 9.48901 5.36042L9.38497 5.53243L9.03947 6.14904L8.34292 6.02912C8.23074 6.00981 8.11622 6 8 6C7.1683 6 6.436 6.51244 6.13852 7.26548L6.08492 7.41922L5.92966 7.93055L5.41828 8.08564C4.58294 8.33898 4 9.11292 4 10C4 11.0544 4.81588 11.9182 5.85074 11.9945L6.0005 12C6.55251 12 7 12.4475 7 12.9995C7 13.5122 6.61429 13.9349 6.11709 13.9932L6 14C3.8578 14 2.10892 12.316 2.0049 10.1996L2 10C2 8.50192 2.83073 7.16589 4.09637 6.48097L4.28009 6.3876L4.354 6.354L4.38728 6.28029C4.97964 5.03664 6.18267 4.17029 7.575 4.02245L7.79635 4.00513L8 4L8.18245 3.77204C9.06571 2.7258 10.5914 2.06633 12 2Z" fill="#1A1C1F"/>
</g>
<defs>
<clipPath id="clip0_185_882">
<rect width="20" height="20" fill="white"/>
</clipPath>
</defs>
</svg>

<svg xmlns="http://www.w3.org/2000/svg" width="20" height="20" fill="none"><g clip-path="url(#a)"><path fill="#1A1C1F" fill-rule="evenodd" d="M10 9a1 1 0 0 1 .993.883L11 10v4.634a1 1 0 0 1 1.29 1.479l-.083.094-1.5 1.5-.082.073-.104.074-.098.052-.11.044-.112.03-.126.017L10 18l-.09-.004-.058-.007-.118-.025-.105-.035-.113-.054-.111-.071-.058-.046-.054-.05-1.5-1.5-.083-.095a1 1 0 0 1 0-1.226l.083-.094.094-.083c.288-.224.67-.269.995-.135l.119.06L9 10l.007-.117A1 1 0 0 1 10 9m2-7a5 5 0 0 1 5 5l-.013.343.086.096c.487.584.802 1.299.896 2.066l.024.258L18 10a4.004 4.004 0 0 1-3.59 3.977l-.205.018H14a1 1 0 0 1-.992-.882L13 12.996a1 1 0 0 1 .999-1h.12a2 2 0 0 0 1.875-1.846L16 10a2 2 0 0 0-.58-1.408l-.129-.119-.44-.372.102-.568Q15 7.272 15 7a3 3 0 0 0-5.511-1.64l-.104.172-.346.617-.696-.12a2.003 2.003 0 0 0-2.204 1.236l-.054.154-.155.512-.512.155a2.001 2.001 0 0 0 .433 3.909L6 12a1 1 0 0 1 .116 1.993L6 14a4 4 0 0 1-3.995-3.8L2 10c0-1.498.83-2.834 2.096-3.519l.184-.093.074-.034.033-.074a4 4 0 0 1 3.188-2.258l.221-.017L8 4l.182-.228C9.066 2.726 10.592 2.066 12 2" clip-rule="evenodd"/></g><defs><clipPath id="a"><path fill="#fff" d="M0 0h20v20H0z"/></clipPath></defs></svg>
